!!!OTL: PFEIFCHEN WER HAT DICH ERFUNDEN
!!!ARE: Europa, Mitteleuropa, Deutschland, Hessen, Giessen
!!!SCT: E1388
!!!YEM: Copyright 1995, estate of Helmut Schaffrath.
**kern
*ICvox
*Ivox
*M4/4
*k[f#c#]
*D:
{8d
8f#
=1
4a
4a
4a
8f#
8g
=2
2a
4f#}
{8b
8a
=3
4.g
8f#
4g
8b
8a
=4
4f#
2r}
{8a
8a
=5
4b
4b
4cc#
4cc#
=6
2dd
4a}
{8cc#
8a
=7
4g
8cc#
8b
8a
8a
8g
8a
=8
4f#
2r}
{8a
8a
=9
4b
4b
4cc#
4cc#
=10
2dd
4a}
{8cc#
8a
=11
4g
8cc#
8b
8a
8a
8g
8a
=12
4f#
2r}
{8dd
8dd
=13
8cc#
8cc#
8b
8b
8a
8a
8g
8g
=14
8b
8b
8.a
16a
4a}
{8.f#
16f#
=15
8a
8a
8.g
16g
4g
8g
8g
=16
8b
8a
8.a
16a
4a}
{8dd
8dd
=17
8cc#
8cc#
8b
8b
8a
8a
8g
8g
=18
8b
8b
8.a
16a
4a}
{12a
12a
12a
=19
4b
12b
12b
12b
4cc#
12cc#
12cc#
12cc#
=20
4dd
2r}
==
!!!AGN: Staende -, Soldaten -, Scherz - Lied
!!!ONB: ESAC (Essen Associative Code) Database: ERK3
!!!AMT: simple quadruple
!!!AIN: vox
!!!EED: Helmut Schaffrath
!!!EEV: 1.0
*-
